!!!!SEGMENT: pl-kk--kk-i-368--001_anonim--aeterna-christi-minera.krn
!!!cenid: 17xx:1969
!!!COM: Anonim
!!!COM-rismID: pe30004985
!!!CDT:
!!!CNT:
!!!OTL: Aeterna Christi minera
!!!PDT:
!!!AGN: Sacred
!!!YEC: Copyright 2022 Narodowy Instytut Fryderyka Chopina (https://polishscores.org)
!!!YEM: License CC-BY-4.0 (https://creativecommons.org/licenses/by/4.0)
!!!SMS-siglum: PL-Kk
!!!SMS-shelfmark: Kk.I.368
!!!SMS-shelfwork: 001 W
!!!SMS-variant:
!!!SMS-altvar:
!!!NIFC-rismSourceID: 1001144504
!!!NIFC-rismChildID: 1001144504
!!!NIFC-islandoraID: pl-kk:6021
!!!URL-pdf-islandora: https://repozytorium.nifc.pl/islandora/object/pl-kk%3A6021/datastream/PDF/view
!!!URL-scan: https://polish.musicsources.pl/pl/lokalizacje/galeria/rekopisy/5981 @EN{Scan on Polish Music Sources Website} @PL{Skany w portalu Dziedzictwo Muzyki Polskiej w otwartym dostępie}
!!!IIIF:
!!!ONB-nifc: UWAGA: utwory w zbiorze: 1. Aeterna Christi minera, 2. Exultet orbis Laudys
!!!AIN: 1 alto 1 empty 1 tenor 1 vox
!!!key:
**kern	**fba	**text	**text	**text	**text	**text	**kern	**text	**text	**text	**text	**text	**kern	**text	**text	**text	**text	**text	**kern	**text	**text	**text	**text	**text
*part4	*	*	*	*	*	*	*part3	*	*	*	*	*	*part2	*	*	*	*	*	*part1	*	*	*	*	*
*staff4	*	*	*	*	*	*	*staff3	*	*	*	*	*	*staff2	*	*	*	*	*	*staff1	*	*	*	*	*
*Iempty	*	*	*	*	*	*	*Itenor	*	*	*	*	*	*Ialto	*	*	*	*	*	*Ivox	*	*	*	*	*
*I"[Basso]	*	*	*	*	*	*	*I"[Tenore]	*	*	*	*	*	*I"[Alto]	*	*	*	*	*	*I"[Canto]	*	*	*	*	*
*I'B	*	*	*	*	*	*	*I'T	*	*	*	*	*	*I'[A]	*	*	*	*	*	*I'[C]	*	*	*	*	*
*clefF4	*	*	*	*	*	*	*clefC4	*	*	*	*	*	*clefC3	*	*	*	*	*	*clefC1	*	*	*	*	*
*k[]	*	*	*	*	*	*	*k[]	*	*	*	*	*	*k[]	*	*	*	*	*	*k[]	*	*	*	*	*
*e:	*	*	*	*	*	*	*e:	*	*	*	*	*	*e:	*	*	*	*	*	*e:	*	*	*	*	*
*M3/2	*	*	*	*	*	*	*M3/2	*	*	*	*	*	*M3/2	*	*	*	*	*	*M3/2	*	*	*	*	*
=1	=1	=1	=1	=1	=1	=1	=1	=1	=1	=1	=1	=1	=1	=1	=1	=1	=1	=1	=1	=1	=1	=1	=1	=1
*2\right	*	*	*	*	*	*	*	*	*	*	*	*	*2\right	*	*	*	*	*	*	*	*	*	*	*
!LO:TX:t=P:problem=tekst 5 zwrotki dopisany pod pięciolinią [uwzględniono zgodnie z pozostałymi partiami]	!	!	!	!	!	!	!	!	!	!	!	!	!	!	!	!	!	!	!	!	!	!	!	!
!LO:TX:t=P:problem=niejednoznaczny podział tekstu słownego	!	!	!	!	!	!	!	!	!	!	!	!	!	!	!	!	!	!	!	!	!	!	!	!
!LO:TX:t=P:problem=all\right&colon; global	!	!	!	!	!	!	!LO:TX:t=P:problem=all\right&colon; global	!	!	!	!	!	!LO:TX:t=P:problem=all\right&colon; global	!	!	!	!	!	!LO:TX:t=P:problem=all\right&colon; global	!	!	!	!	!
2E\	.	Ae-	2_Ec-	3_De-	4_In	5_Pa-	(4G\	Ae-	Ec-	De-	In	Pa-	2e\	Ae-	Ec-	De-	In	Pa-	(4b\	Ae-	Ec-	De-	In	Pa-
.	.	.	.	.	.	.	4A\)	.	.	.	.	.	.	.	.	.	.	.	4a\)	.	.	.	.	.
2E\	.	-ter-	-cle-	-vo-	his	-tri	(4B\	-ter-	-cle-	-vo-	his	-tri	2e\	-ter-	-cle-	-vo-	his	-tri	(4g/	-ter-	-cle-	-vo-	his	-tri
.	.	.	.	.	.	.	4A\)	.	.	.	.	.	.	.	.	.	.	.	4f#X/)	.	.	.	.	.
2E\	.	-na	-si-	-ta	pa-	ſi-	(4B\	-na	-si-	-ta	pa-	ſi-	2e\	-na	-ſi-	-ta	pa-	ſi-	(4g/	-na	-ſi-	-ta	pa-	ſi-
.	.	.	.	.	.	.	4G\)	.	.	.	.	.	.	.	.	.	.	.	4e/)	.	.	.	.	.
=2	=2	=2	=2	=2	=2	=2	=2	=2	=2	=2	=2	=2	=2	=2	=2	=2	=2	=2	=2	=2	=2	=2	=2	=2
4C/	.	Chri-	-a-	San-	-ter-	-mul-	1E/	Chri-	-a-	San-	-ter-	-mul-	(2e\	Chri-	-a-	San-	-ter-	-mul-	(4a\	Chri-	-a-	San-	-ter-	-mul-
4BB/	.	.	.	.	.	.	.	.	.	.	.	.	.	.	.	.	.	.	4b\)	.	.	.	.	.
!	!	!	!	!	!	!	!	!	!	!	!	!	!LO:SIC:v:s=2cn	!	!	!	!	!	!	!	!	!	!	!
4AA/	.	.	.	.	.	.	.	.	.	.	.	.	2c#X/)	.	.	.	.	.	(4cc\	.	.	.	.	.
4GG/	.	.	.	.	.	.	.	.	.	.	.	.	.	.	.	.	.	.	4b\)	.	.	.	.	.
*	*	*	*	*	*	*	*	*	*	*	*	*	*	*	*	*	*	*	*2\right	*	*	*	*	*
2F#X\	6\	-ſti	-rum	-cto-	-na	-q(ue)	2A/	-ſti	-rum	-cto-	-na	-q(ue)	2d#X\	-ſti	-rum	-cto-	-na	-q(ue)	2a\	-sti	-rum	-cto-	-na	-q(ue)
=3	=3	=3	=3	=3	=3	=3	=3	=3	=3	=3	=3	=3	=3	=3	=3	=3	=3	=3	=3	=3	=3	=3	=3	=3
*	*	*	*	*	*	*	*2\right	*	*	*	*	*	*	*	*	*	*	*	*	*	*	*	*	*
2E\	.	.	.	-rum	.	.	(2B\	mi-	prin-	-rum	glo-	fi-	1e\	mi-	prin-	-rum	glo-	Fi-	2g/	mi-	prin-	-rum	glo-	fi-
2AA/	6\	mi-	prin-	fi-	glo-	fi-	2c\)	.	.	.	.	.	.	.	.	.	.	.	2.f#X/	-ne-	-ci-	fi-	-ri-	-li-
4BB/	#	.	.	.	.	.	2B\	-ne-	-ci-	fi-	-ri-	-li-	2d#X\	-ne-	-ci-	fi-	-ri-	-li-	.	.	.	.	.	.
4BB/	.	-ne-	-ci-	.	-ri-	-li-	.	.	.	.	.	.	.	.	.	.	.	.	4e/	.	.	.	.	.
=4	=4	=4	=4	=4	=4	=4	=4	=4	=4	=4	=4	=4	=4	=4	=4	=4	=4	=4	=4	=4	=4	=4	=4	=4
1.E\	.	-ra.	-pes,	-des,	-a,	-o,	1.B\	-ra	-pes	-des,	-a	-o,	1.e\	-ra,	-pes,	-des,	-a,	-o,	1.e/	-ra	-pes	-des	-a	-o,
=5	=5	=5	=5	=5	=5	=5	=5	=5	=5	=5	=5	=5	=5	=5	=5	=5	=5	=5	=5	=5	=5	=5	=5	=5
2E\	.	A-	bel-	in-	in	ti-	(4Gn\	A-	bel-	in-	in	ti-	2g\	A-	bel-	in-	in	ti-	(4ee\	A-	bel-	in-	in	ti-
.	.	.	.	.	.	.	4A\)	.	.	.	.	.	.	.	.	.	.	.	4ff#X\)	.	.	.	.	.
2E\	.	-po-	-li	-vi-	his	-bi-	(4B\	-po-	-li	-vi-	his	-bi-	2g\	-po-	-li	-vi-	his	-bi-	(4gg\	-po-	-li	-vi-	his	-bi-
.	.	.	.	.	.	.	4A\)	.	.	.	.	.	.	.	.	.	.	.	4ff#X\)	.	.	.	.	.
!	!	!	!	!	!	!	!	!	!	!	!	!	!	!	!	!	!	!	!	!	!	!LO:MO:mod=-cta	!	!
2E\	6\	-ſto-	triu-	-cta	tri-	-q(ue)	2c#X\	-ſto-	tri-	-cta	tri-	-q(ue)	2g\	-ſto-	tri-	-cta	tri-	-q(ue)	(4ee\	-ſto-	tri-	-ta	tri-	-q(ue)
.	.	.	.	.	.	.	.	.	.	.	.	.	.	.	.	.	.	.	4ff#X\)	.	.	.	.	.
=6	=6	=6	=6	=6	=6	=6	=6	=6	=6	=6	=6	=6	=6	=6	=6	=6	=6	=6	=6	=6	=6	=6	=6	=6
!	!	!	!	!	!	!	!LO:SIC:v:s=2c#	!	!	!	!	!	!	!	!	!	!	!	!	!	!	!	!	!
4F#X\	.	-lo-	-um-	Spes	-um-	San-	2c\	-lo-	-um-	spes	-um-	San-	1f#X\	-lo-	-um-	Spes	-um-	ſan-	2a#X\	-lo-	-um-	Spes	-um-	ſan-
4E\	.	.	.	.	.	.	.	.	.	.	.	.	.	.	.	.	.	.	.	.	.	.	.	.
4D/	.	.	.	.	.	.	1B\	-rum	-pha-	cre-	-phat	-cte	.	.	.	.	.	.	2f#X/	-rum	-pha-	cre-	-phat	-cte
!LO:SIC:v:s=4C#	!	!	!	!	!	!	!	!	!	!	!	!	!	!	!	!	!	!	!	!	!	!	!	!
4C/	.	.	.	.	.	.	.	.	.	.	.	.	.	.	.	.	.	.	.	.	.	.	.	.
(4BB/	.	-rum	-pha-	cre-	-phat	-cte	.	.	.	.	.	.	2f#\	-rum	-pha-	cre-	-pjat	-cte	1dd\	glo-	-les	-den-	Fi-	Spi-
4AA/)	.	.	.	.	.	.	.	.	.	.	.	.	.	.	.	.	.	.	.	.	.	.	.	.
=7	=7	=7	=7	=7	=7	=7	=7	=7	=7	=7	=7	=7	=7	=7	=7	=7	=7	=7	=7-	=7	=7	=7	=7	=7
(4G\	.	.	.	.	.	.	1B\	glo-	-les	-den-	fi-	Spi-	1g\	glo-	-les	-den-	fi-	Spi-	.	.	.	.	.	.
4F\)	.	.	.	.	.	.	.	.	.	.	.	.	.	.	.	.	.	.	.	.	.	.	.	.
2E\	5 6\	glo-	-les	-den-	fi-	Spi-	.	.	.	.	.	.	.	.	.	.	.	.	2.cc#X\	-ri-	du-	-ti-	-li-	-ri-
4F#X\	.	.	du-	.	.	.	2A#X/	-ri-	du-	-ti-	-li-	-ri-	2f#X\	-ri-	du-	-ti-	-li-	-ri-	.	.	.	.	.	.
4F#\	.	-ri-	.	-ti-	-li-	-ri-	.	.	.	.	.	.	.	.	.	.	.	.	4b\	.	.	.	.	.
=8	=8	=8	=8	=8	=8	=8	=8	=8	=8	=8	=8	=8	=8	=8	=8	=8	=8	=8	=8	=8	=8	=8	=8	=8
1.BB/	.	-am	-ces,	-um	-um,	-tus	1.B\	-am,	-ces,	-um,	-us!	-tus,	1.f#X\	-am	-ces.	-um,	-us,	-tus,	1.b\	-am,	-ces,	-um,	-us,	-tus,
=9	=9	=9	=9	=9	=9	=9	=9	=9	=9	=9	=9	=9	=9	=9	=9	=9	=9	=9	=9	=9	=9	=9	=9	=9
2G\	.	pal-	Cae-	per-	in	ſi-	2d\	pal-	Cae-	per-	In	ſi-	2g\	pal-	Cae-	per-	in	ſi-	(4b\	pal-	cae-	per-	in	Si-
.	.	.	.	.	.	.	.	.	.	.	.	.	.	.	.	.	.	.	4cc\)	.	.	.	.	.
2F#X\	6	-mas	-le-	-fe-	his	-cut	2.d\	-mas	-le-	-fe-	his	-cut	2a\	-mas	-le-	-fe-	his	-cut	(4dd\	-mas	-le-	-fe-	his	-cut
.	.	.	.	.	.	.	.	.	.	.	.	.	.	.	.	.	.	.	4cc\)	.	.	.	.	.
2F#\	.	et	-stis	-cta	Vo-	fu-	.	.	.	.	.	.	2a\	et	-ſtis	-cta	vo-	fu-	(4cc\	et	-stis	-cta	vo-	fu-
.	.	.	.	.	.	.	4d\	et	-ſtis	-cta	Vo-	fu-	.	.	.	.	.	.	4b\)	.	.	.	.	.
=10	=10	=10	=10	=10	=10	=10	=10	=10	=10	=10	=10	=10	=10	=10	=10	=10	=10	=10	=10	=10	=10	=10	=10	=10
(4G\	.	hẏ-	au-	Chri-	-lun-	-it	2d\	hy-	au-	Chri-	-lun-	-it	1g\	hy-	au-	Chri-	-lun-	-it	2.b\	hy-	au-	Chri-	-lun-	-it
!LO:SIC:v:s=4F#	!	!	!	!	!	!	!	!	!	!	!	!	!	!	!	!	!	!	!	!	!	!	!	!
4F\)	.	.	.	.	.	.	.	.	.	.	.	.	.	.	.	.	.	.	.	.	.	.	.	.
(4E\	.	.	.	.	.	.	1G/	-mnos	-lae	-ſti	-tas	ſit	.	.	.	.	.	.	.	.	.	.	.	.
4D\)	.	.	.	.	.	.	.	.	.	.	.	.	.	.	.	.	.	.	8cc\L	.	.	.	.	.
.	.	.	.	.	.	.	.	.	.	.	.	.	.	.	.	.	.	.	8dd\J	.	.	.	.	.
2C/	.	-mnos	-lae	-ſti	-tas	ſit	.	.	.	.	.	.	2e\	-mnos	-lae	-ſti	-tas	ſit	2ee\	.	.	.	.	.
=11	=11	=11	=11	=11	=11	=11	=11	=11	=11	=11	=11	=11	=11	=11	=11	=11	=11	=11	=11	=11	=11	=11	=11	=11
2BB/	x 6	.	.	.	.	.	2G/	de-	mi-	cha-	Spi-	iu-	(2d\	de-	mi-	cha-	Spi-	ju-	2g/	-mnos	-lae	-ſti	-tas	ſit
2C/	6 5	de-	mi-	cha-	Spi-	iu-	2.G/	.	-li-	-ri-	-ri-	-pi-	2e\)	.	.	.	.	.	2.a\	de-	mi-	cha-	Spi-	ju-
4D/	x #	.	.	.	-ri-	.	.	.	.	.	.	.	2d\	-bi-	-li-	-ri-	-ri-	-gi-	.	.	.	.	.	.
4D/	.	-bi-	li-	-ri-	.	-pi-	4F#X/	-bi-	.	.	.	.	.	.	.	.	.	.	4a\	-bi-	-li-	-ri-	-ri-	-gi-
=12	=12	=12	=12	=12	=12	=12	=12	=12	=12	=12	=12	=12	=12	=12	=12	=12	=12	=12	=12	=12	=12	=12	=12	=12
1.GG/	.	-tos,	-tes,	-tas,	-tus,	-ter	1.G/	-tos.	-tes,	-tas,	-tus,	-ter.	1.d\	-tos,	-tes,	-tas,	-tus,	-ter,	1.g\	-tos	-tes	-tas,	-tus,	-ter,
=13	=13	=13	=13	=13	=13	=13	=13	=13	=13	=13	=13	=13	=13	=13	=13	=13	=13	=13	=13	=13	=13	=13	=13	=13
2E\	.	lae-	et	mun-	coe-	Sae-	2B\	lae-	et	mun-	coe-	Sae-	2e\	lae-	et	mun-	coe-	Sae-	(4g\	lae-	et	mun-	coe-	Sae-
.	.	.	.	.	.	.	.	.	.	.	.	.	.	.	.	.	.	.	4a\)	.	.	.	.	.
2D#X/	6	-tis	Ve-	-di	-lum	-clum	2.B\	-tis	Ve-	-di	-lum	-clum	2f#X\	-tis	Ve-	-di	-lum	-clum	(4b\	-tis	ve-	-di	-lum	-clum
.	.	.	.	.	.	.	.	.	.	.	.	.	.	.	.	.	.	.	4a\)	.	.	.	.	.
2D#/	.	ca-	-ra	Ty-	re-	per	.	.	.	.	.	.	2f#\	ca-	-ra	Ty-	re-	per	(4a\	ca-	-ra	ty-	re-	per
.	.	.	.	.	.	.	4B\	ca-	-ra	Ty-	re-	per	.	.	.	.	.	.	4g\)	.	.	.	.	.
=14	=14	=14	=14	=14	=14	=14	=14	=14	=14	=14	=14	=14	=14	=14	=14	=14	=14	=14	=14	=14	=14	=14	=14	=14
4E\	.	-na-	mun-	-ran-	-ple-	o-	2B\	-na-	mun-	-ran-	-ple-	o-	1e\	-na-	mun-	-ran-	-ple-	o-	2.g\	-na-	mun-	-ran-	-ple-	o-
4D\	.	.	.	.	.	.	.	.	.	.	.	.	.	.	.	.	.	.	.	.	.	.	.	.
4C/	.	.	.	.	.	.	1c\	-mus	-di	-num	-tur	-mne	.	.	.	.	.	.	.	.	.	.	.	.
4BB/	.	.	.	.	.	.	.	.	.	.	.	.	.	.	.	.	.	.	8a\L	.	.	.	.	.
.	.	.	.	.	.	.	.	.	.	.	.	.	.	.	.	.	.	.	8b\J	.	.	.	.	.
2AA/	.	-mus	-di	-num	-tur	-mne	.	.	.	.	.	.	2e\	-mus	-di	-nu(m)	-tur	-mne	8cc\L	.	.	.	.	.
.	.	.	.	.	.	.	.	.	.	.	.	.	.	.	.	.	.	.	8dd\	.	.	.	.	.
.	.	.	.	.	.	.	.	.	.	.	.	.	.	.	.	.	.	.	8ee\	.	.	.	.	.
.	.	.	.	.	.	.	.	.	.	.	.	.	.	.	.	.	.	.	8ff#X\J	.	.	.	.	.
=15	=15	=15	=15	=15	=15	=15	=15	=15	=15	=15	=15	=15	=15	=15	=15	=15	=15	=15	=15	=15	=15	=15	=15	=15
2GG/	.	.	.	.	.	.	(2B\	men-	lu-	con-	gau-	glo-	1e\	men-	lu-	con-	gau-	glo-	4gg\	.	.	.	.	.
*	*	*	*	*	*	*	*	*	*	*	*	*	*	*	*	*	*	*	*custos:ff#	*	*	*	*	*
.	.	.	.	.	.	.	.	.	.	.	.	.	.	.	.	.	.	.	4ff#X\	-mus	-di	-num	-tur	-mne
*custos:BB	*	*	*	*	*	*	*	*	*	*	*	*	*	*	*	*	*	*	*	*	*	*	*	*
!	!	!	!	!	!	!	!	!	!	!	!	!	!	!	!	!	!	!	!LO:LB:g=original	!	!	!	!	!
2AA/	.	men-	lu-	con-	gau-	glo-	2c\)	.	.	.	.	.	.	.	.	.	.	.	2.ff#X\	men-	lu-	con-	gau-	glo-
!LO:LB:g=original	!	!	!	!	!	!	!	!	!	!	!	!	!	!	!	!	!	!	!	!	!	!	!	!
4BB/	.	.	.	.	-di-	-ri-	2B\	-ti-	-mi-	-te-	-di-	-ri-	2d#X\	-ti-	-mi-	-te-	-di-	-ri-	.	.	.	.	.	.
4BB/	.	-ti-	-mi-	-te-	.	.	.	.	.	.	.	.	.	.	.	.	.	.	4ee\	-ti-	-mi-	-te-	-di-	-ri-
=16	=16	=16	=16	=16	=16	=16	=16	=16	=16	=16	=16	=16	=16	=16	=16	=16	=16	=16	=16	=16	=16	=16	=16	=16
1.E\	.	-bus,	-na	-rit	-o	-a.	1.B\	-bus,	-na.	-rit,	-o.	-a,	1.e\	-bus,	-na,	-rit	-o,	-a.	1.ee\	-b(us),	-na,	-rit	-o	-a
=17	=17	=17	=17	=17	=17	=17	=17	=17	=17	=17	=17	=17	=17	=17	=17	=17	=17	=17	=17	=17	=17	=17	=17	=17
2G\	.	pal-	Cae-	per-	in	ſi-	2d\	pal-	cae-	per-	in	ſi-	2g\	pal-	cae-	per-	in	ſi-	(4b\	pal-	cae-	per-	in	ſi-
.	.	.	.	.	.	.	.	.	.	.	.	.	.	.	.	.	.	.	4cc\)	.	.	.	.	.
2F#X\	6	-mas	-le-	-fe-	his	-cut	2.d\	-mas	-le-	-fe-	his	-cut	2a\	-mas,	-le-	-fe-	his	-cut	(4dd\	-mas	-le-	-fe-	his	-cut
.	.	.	.	.	.	.	.	.	.	.	.	.	.	.	.	.	.	.	4cc\)	.	.	.	.	.
2F#\	.	et	-stis	-cta	Vo-	fu-	.	.	.	.	.	.	2a\	et	-ſtis	-cta,	vo-	fu-	(4cc\	et	-ſtis	-cta	vo-	fu-
*	*	*	*	*	*	*	*custos:d	*	*	*	*	*	*	*	*	*	*	*	*	*	*	*	*	*
.	.	.	.	.	.	.	4d\	et	-ſtis	-cta	Vo-	fu-	.	.	.	.	.	.	4b\)	.	.	.	.	.
!	!	!	!	!	!	!	!LO:LB:g=original	!	!	!	!	!	!	!	!	!	!	!	!	!	!	!	!	!
=18	=18	=18	=18	=18	=18	=18	=18	=18	=18	=18	=18	=18	=18	=18	=18	=18	=18	=18	=18	=18	=18	=18	=18	=18
4G\	.	hẏ-	au-	Chri-	-lun-	-it	2d\	hy-	au-	Chri-	-lun-	-it	1g\	hy-	au-	Chri-	-lun-	-it	2.b\	hy-	au-	chri-	-lun-	-it
4F\	.	.	.	.	.	.	.	.	.	.	.	.	.	.	.	.	.	.	.	.	.	.	.	.
4E\	.	.	.	.	.	.	1G/	-mnos	-lae	-ſti	-tas	ſit	.	.	.	.	.	.	.	.	.	.	.	.
4D\	.	.	.	.	.	.	.	.	.	.	.	.	.	.	.	.	.	.	8cc\L	.	.	.	.	.
.	.	.	.	.	.	.	.	.	.	.	.	.	.	.	.	.	.	.	8dd\J	.	.	.	.	.
*	*	*	*	*	*	*	*	*	*	*	*	*	*custos:d	*	*	*	*	*	*	*	*	*	*	*
2C/	.	-mnos	-lae	-ſti	-tas	ſit	.	.	.	.	.	.	2e\	-mnos	-lae	-ſti	-tas	ſit	2ee\	.	.	.	.	.
!	!	!	!	!	!	!	!	!	!	!	!	!	!LO:LB:g=original	!	!	!	!	!	!	!	!	!	!	!
=19	=19	=19	=19	=19	=19	=19	=19	=19	=19	=19	=19	=19	=19	=19	=19	=19	=19	=19	=19	=19	=19	=19	=19	=19
2BB/	6	.	.	.	.	.	2G/	de-	mi-	cha-	Spi-	iu-	(2d\	de-	mi-	cha-	Spi-	iu-	2g/	-mnos	-lae	-ſti	-tas	ſit
2C/	.	de-	mi-	cha-	Spi-	iu-	2.G/	.	-li-	-ri-	-ri-	-pi-	2e\)	.	.	.	.	.	2.a\	de-	mi-	cha-	Spi-	ju-
4D/	.	.	.	.	-ri-	.	.	.	.	.	.	.	2d\	-bi-	-li-	-ri-	-ri-	-gi-	.	.	.	.	.	.
!	!	!	!	!	!	!	!LO:TX:t=P:problem=♯ below	!	!	!	!	!	!	!	!	!	!	!	!	!	!	!	!	!
4D/	.	-bi-	li-	-ri-	.	-pi-	4F#X/	-bi-	.	.	.	.	.	.	.	.	.	.	4a\	-bi-	-li-	-ri-	-ri-	-gi-
=20	=20	=20	=20	=20	=20	=20	=20	=20	=20	=20	=20	=20	=20	=20	=20	=20	=20	=20	=20	=20	=20	=20	=20	=20
1.GG/	.	-tos,	-tes,	-tas,	-tus,	-ter	1.G/	-tos	-tes,	-tas,	-tus,	-ter,	1.d\	-tos	-tes,	-tas,	-tus,	-ter,	1.g\	-tos	-tes,	-tas,	-tus	-ter,
=21	=21	=21	=21	=21	=21	=21	=21	=21	=21	=21	=21	=21	=21	=21	=21	=21	=21	=21	=21	=21	=21	=21	=21	=21
2E\	.	lae-	et	mun-	coe-	Sae-	2G/	lae-	et	mun-	coe-	Sae-	2e\	lae-	et	mun-	coe-	Sae-	(4g\	lae-	et	mun-	coe-	ſae-
.	.	.	.	.	.	.	.	.	.	.	.	.	.	.	.	.	.	.	4a\)	.	.	.	.	.
!	!	!	!	!	!	!	!	!	!	!	!	!	!LO:SIC:v:s=2f#	!	!	!	!	!	!	!	!	!	!	!
2D#X/	6	-tis	ve-	-di	-lum	-clum	2.B\	-tis	Ve-	-di	-lum	-clum	2f\	-tis	Ve-	-di	-lum	-clum	(4b\	-tis	ve-	-di	-lum	-clum
.	.	.	.	.	.	.	.	.	.	.	.	.	.	.	.	.	.	.	4a\)	.	.	.	.	.
2D#/	.	ca-	-ra	Ty-	re-	per	.	.	.	.	.	.	2f#X\	ca-	-ra	Ty-	re-	per	(4a\	ca-	-ra	ty-	re-	per
.	.	.	.	.	.	.	4B\	ca-	-ra	Ty-	re-	per	.	.	.	.	.	.	4g\)	.	.	.	.	.
=22	=22	=22	=22	=22	=22	=22	=22	=22	=22	=22	=22	=22	=22	=22	=22	=22	=22	=22	=22	=22	=22	=22	=22	=22
4E\	.	-na-	mun-	-ran-	-ple-	o-	2B\	-na-	mun-	-ran-	-ple-	o-	1e\	-na-	mun-	-ran-	-ple-	o-	2.g\	-na-	mun-	-ran-	-ple-	o-
4D\	.	.	.	.	.	.	.	.	.	.	.	.	.	.	.	.	.	.	.	.	.	.	.	.
4C/	.	.	.	.	.	.	1c\	-mus	-di	-num	-tur	-mne	.	.	.	.	.	.	.	.	.	.	.	.
4BB/	.	.	.	.	.	.	.	.	.	.	.	.	.	.	.	.	.	.	8a\L	.	.	.	.	.
.	.	.	.	.	.	.	.	.	.	.	.	.	.	.	.	.	.	.	8b\J	.	.	.	.	.
2AA/	.	-mus	-di	-num	-tur	-mne	.	.	.	.	.	.	2e\	-mus	-di	-num	-tur	-mne	8cc\L	.	.	.	.	.
.	.	.	.	.	.	.	.	.	.	.	.	.	.	.	.	.	.	.	8dd\	.	.	.	.	.
.	.	.	.	.	.	.	.	.	.	.	.	.	.	.	.	.	.	.	8ee\	.	.	.	.	.
!	!	!	!	!	!	!	!	!	!	!	!	!	!	!	!	!	!	!	!LO:TX:t=P:problem=fragment zamazany [przyjęto zgodnie z t. nr 14]	!	!	!	!	!
.	.	.	.	.	.	.	.	.	.	.	.	.	.	.	.	.	.	.	8ff#X\J	.	.	.	.	.
=23	=23	=23	=23	=23	=23	=23	=23	=23	=23	=23	=23	=23	=23	=23	=23	=23	=23	=23	=23	=23	=23	=23	=23	=23
2GG/	.	.	.	.	.	.	2B\	men-	lu-	con-	gau-	glo-	1e\	men-	lu-	con-	gau-	glo-	4gg\	.	.	.	.	.
!	!	!	!	!	!	!	!	!	!	!	!	!	!	!	!	!	!	!	!LO:TX:t=P:problem=fragment zamazany [przyjęto zgodnie z t. nr 15]	!	!	!	!	!
.	.	.	.	.	.	.	.	.	.	.	.	.	.	.	.	.	.	.	4ff#X\	-mus	-di	-num	-tur	-mne
2AA/	5 6	men-	lu-	con-	gau-	glo-	2c\	.	.	.	.	.	.	.	.	.	.	.	2.ff#\	men-	lu-	con-	gau-	glo-
4BB/	.	.	.	.	-di-	-ri-	2B\	-ti-	-mi-	-te-	-di-	-ri-	2d#X\	-ti-	-mi-	-te-	-di-	-ri-	.	.	.	.	.	.
4BB/	.	-ti-	-mi-	-te-	.	.	.	.	.	.	.	.	.	.	.	.	.	.	4ee\	-ti-	-mi-	-te-	-di-	-ri-
=24	=24	=24	=24	=24	=24	=24	=24	=24	=24	=24	=24	=24	=24	=24	=24	=24	=24	=24	=24	=24	=24	=24	=24	=24
0.E\;<	.	-bus,	-na	-rit	-o.	-a.	0.B\;<	-bus	-na	-rit	-o	-a.	0.e\;<	-bus	-na	-rit.	-o.	-a.	0.ee\;<	-bus	-na	-rit	-o	-a
==	==	==	==	==	==	==	==	==	==	==	==	==	==	==	==	==	==	==	==	==	==	==	==	==
*-	*-	*-	*-	*-	*-	*-	*-	*-	*-	*-	*-	*-	*-	*-	*-	*-	*-	*-	*-	*-	*-	*-	*-	*-
!!!system-decoration: [(s1,s2,s3,s4)]
!!!RDF**kern: > = above
!!!RDF**kern: < = below
!!!EED: Leszek Kubiak
!!!EEV: 2021-02-24
!!!ENC: Andrzej Kubiczek
!!!END: 2021-02-06
